X:87
M:6/8
L:1/8
Q:3/8=70
K:D
d2e c2e|c2B e2e|d>ef f3|g2e f2f|d2d e2d|c2B f2f|f^AF F3|e2d f2d|

